X:11
T: Barbara Allen
N: HA011
O: Europa, Mitteleuropa, Deutschland
N: Melismen
M: 4/4
L: 1/16
K: Dm
A3A | d4d3ef4e2d2 | c4e3fg4
f2e2 | d6e2f2e2d2c2 | A4d8
c4 | A4c4G4A2G2 | F6G2A4
d2c2 | A6G2F4F2G2 | A4d8

@@@ Tune index: 7236
